communes/5160.svg

<?xml version="1.0" encoding="UTF-8"?>
<svg version="1.0" viewBox="0 0 603 763" xmlns="http://www.w3.org/2000/svg" xmlns:cc="http://creativecommons.org/ns#" xmlns:dc="http://purl.org/dc/elements/1.1/" xmlns:rdf="http://www.w3.org/1999/02/22-rdf-syntax-ns#" xmlns:xlink="http://www.w3.org/1999/xlink">
<metadata>
<rdf:RDF>
<cc:Work rdf:about="">
<dc:format>image/svg+xml</dc:format>
<dc:type rdf:resource="http://purl.org/dc/dcmitype/StillImage"/>
<dc:date>07-AUG-2006</dc:date>
<dc:creator>
<cc:Agent>
<dc:title>Jérôme BLUM (wagner51)</dc:title>
</cc:Agent>
</dc:creator>
<cc:license rdf:resource="http://creativecommons.org/licenses/GPL/2.0/"/>
<dc:coverage/>
<dc:description>Gabarit pour le Projet:Blasons de WIkipédia</dc:description>
<dc:subject>
<rdf:Bag>
<rdf:li>blason suisse modèle gabarit projet blasons</rdf:li>
</rdf:Bag>
</dc:subject>
<dc:language>fr</dc:language>
<dc:title>Gabrit d'un blason suisse</dc:title>
</cc:Work>
<cc:License rdf:about="http://creativecommons.org/licenses/GPL/2.0/">
<cc:permits rdf:resource="http://web.resource.org/cc/Reproduction"/>
<cc:permits rdf:resource="http://web.resource.org/cc/Distribution"/>
<cc:requires rdf:resource="http://web.resource.org/cc/Notice"/>
<cc:permits rdf:resource="http://web.resource.org/cc/DerivativeWorks"/>
<cc:requires rdf:resource="http://web.resource.org/cc/ShareAlike"/>
<cc:requires rdf:resource="http://web.resource.org/cc/SourceCode"/>
</cc:License>
</rdf:RDF>
</metadata>
<defs>
<radialGradient id="a" cx="858.04" cy="579.93" r="300" gradientTransform="matrix(1.215 1.5316e-24 1.4647e-23 1.2667 -839.19 -490.49)" gradientUnits="userSpaceOnUse">
<stop stop-color="#fff" stop-opacity=".31373" offset="0"/>
<stop stop-color="#fff" stop-opacity=".25098" offset=".19"/>
<stop stop-color="#6b6b6b" stop-opacity=".12549" offset=".6"/>
<stop stop-opacity=".12549" offset="1"/>
</radialGradient>
</defs>
<desc>Coat of Arms of Canton of Freiburg (Fribourg)</desc>
<g>
<path d="m1.5 1.5v458.87c0 166.31 134.31 301.13 300 301.13s300-134.82 300-301.13v-458.87h-600z" fill="#2b5df2"/>
<path d="m275.93 244.26s-68.189-14.206-68.189-68.189c0-43.755 36.936-38.072 50.574-90.351 0 0 15.913 12.054 17.504 35.156 5.239-4.506 10.81-8.835 16.59-12.995 31.064-22.351 50.763-19.699 56.824-48.111 0 0 25.024 25.734 2.674 48.085 29.251-12.563 53.395-30.179 53.395-62.102 0 0 21.214 16.668 21.214 43.566 0 7.501-2.121 14.383-5.56 20.516 13.756-10.543 24.123-1.954 24.123-1.954-11.365 7.577-19.7 37.504-29.549 53.036-3.799 5.99-9.287 11.98-15.901 17.405-4.166 21.214-32.211 32.98-48.122 42.451s-24.435 19.7-24.435 19.7l-51.142 3.787z" fill="#e20909" stroke="#000" stroke-linecap="round" stroke-linejoin="round" stroke-width="3"/>
<path d="m420.96 109.83c-8.889 15.855-26.577 26.696-39.143 30.248" fill="none" stroke="#000" stroke-linecap="round" stroke-linejoin="round" stroke-width="3"/>
<path d="m327.07 223.8s11.933-20.457 34.663-26.139c13.964-3.491 27.356-10.699 37.894-19.342" fill="none" stroke="#000" stroke-linecap="round" stroke-linejoin="round" stroke-width="3"/>
<path d="m351.91 107.85c-3.726 1.6-7.533 3.118-11.386 4.573-34.903 13.185-82.586 45.459-82.586 85.616 0 23.487 14.784 45.426 14.784 45.426" fill="none" stroke="#000" stroke-linecap="round" stroke-linejoin="round" stroke-width="3"/>
<path d="m252.4 236.03s-16.063-20.936-16.063-45.56c0-26.825 16.562-49.886 39.477-69.591" fill="none" stroke="#000" stroke-linecap="round" stroke-linejoin="round" stroke-width="3"/>
<path d="m237.86 141.41s-31.822 31.254-11.104 77.634" fill="none" stroke="#000" stroke-linecap="round" stroke-linejoin="round" stroke-width="3"/>
<path d="m280.95 223.8s-1.326-7.198-1.326-11.081c0-16.006 6.535-41.352 21.877-54.042" fill="none" stroke="#000" stroke-linecap="round" stroke-linejoin="round" stroke-width="3"/>
<path d="m356.62 147.66c-10.229 3.41-53.131 33.243-56.825 76.145" fill="none" stroke="#000" stroke-linecap="round" stroke-linejoin="round" stroke-width="3"/>
<path d="m395.26 462.47v-177.86h-187.52v177.86l-64.78 84.101v100.01h116.49v-107.4c0-16.633 18.827-30.117 42.05-30.117s42.051 13.484 42.051 30.117v107.4h116.49v-100.01l-64.78-84.1z" fill="#fff" stroke="#000" stroke-linecap="round" stroke-linejoin="round" stroke-width="3"/>
<polygon points="374.24 223.8 374.24 263.58 327.07 263.58 327.07 223.8 275.93 223.8 275.93 263.58 228.76 263.58 228.76 223.8 188.99 223.8 188.99 294.27 414.01 294.27 414.01 223.8" fill="#fff" stroke="#000" stroke-linecap="round" stroke-linejoin="round" stroke-width="3"/>
<path d="m301.5 459.27c3.113-1.966 6.404-3.831 9.849-5.599 26.14-13.402 55.689-50.301 51.9-74.546 0 0 23.203 25.098 23.203 56.351 0 31.255-31.681 62.934-40.062 71.315 0 0 26.14-25.57 49.011-11.365 0 0-19.462 6.535-25.713 22.73-6.25 16.194-20.457 34.379-38.072 34.379-6.957 0-13.59-1.094-19.021-4.045-2.942 0.948-6.651 1.677-11.097 1.677-5.645 0-11.546-1.744-16.75-5.325 0 0-0.696 0.329-2.698 0.979-3.178 0.953-6.693 1.6-10.385 1.6-14.064 0-32.39-9.944-32.39-34.663 0-38.073 43.755-64.4 40.63-87.511 2e-3 0 20.175 10.156 21.595 34.023z" fill="#e20909" stroke="#000" stroke-linecap="round" stroke-linejoin="round" stroke-width="3"/>
<path d="m312.6 548.49c-7.985-4.34-13.37-12.695-13.37-27.493 0-28.412 28.982-47.163 39.588-54.93" fill="none" stroke="#000" stroke-linecap="round" stroke-linejoin="round" stroke-width="3"/>
<path d="m284.75 544.84c-8.942-6.152-15.829-17.729-15.829-35.209 0-21.132 12.662-37.79 32.58-50.363" fill="none" stroke="#000" stroke-linecap="round" stroke-linejoin="round" stroke-width="3"/>
</g>
<g>
<path d="m1.5 1.5v458.87c0 166.31 134.31 301.13 300 301.13 165.69 0 300-134.82 300-301.13v-458.87h-600z" fill="url(#a)"/>
<path d="m1.5 1.5v458.87c0 166.31 134.31 301.13 300 301.13 165.69 0 300-134.82 300-301.13v-458.87h-600z" fill="none" stroke="#000" stroke-width="3"/>
</g>
</svg>

<?xml version="1.0" encoding="UTF-8" standalone="no"?>
<svg
   xmlns:dc="http://purl.org/dc/elements/1.1/"
   xmlns:cc="http://creativecommons.org/ns#"
   xmlns:rdf="http://www.w3.org/1999/02/22-rdf-syntax-ns#"
   xmlns:svg="http://www.w3.org/2000/svg"
   xmlns="http://www.w3.org/2000/svg"
   xmlns:xlink="http://www.w3.org/1999/xlink"
   xmlns:sodipodi="http://sodipodi.sourceforge.net/DTD/sodipodi-0.dtd"
   xmlns:inkscape="http://www.inkscape.org/namespaces/inkscape"
   height="763"
   width="603"
   version="1.0"
   id="svg20"
   sodipodi:version="0.32"
   inkscape:version="0.46"
   sodipodi:docname="BrusinoArsizio-coat_of_arms.svg"
   sodipodi:docbase="C:\Documents and Settings\Steve\Bureau\Blason Villages Suisse pour Wikipédia (par Delta-9)"
   inkscape:output_extension="org.inkscape.output.svg.inkscape">
  <metadata
     id="metadata31">
    <rdf:RDF>
      <cc:Work
         rdf:about="">
        <dc:format>image/svg+xml</dc:format>
        <dc:type
           rdf:resource="http://purl.org/dc/dcmitype/StillImage" />
        <dc:date>07-AUG-2006</dc:date>
        <dc:creator>
          <cc:Agent>
            <dc:title>Jérôme BLUM (wagner51)</dc:title>
          </cc:Agent>
        </dc:creator>
        <cc:license
           rdf:resource="http://creativecommons.org/licenses/GPL/2.0/" />
        <dc:coverage />
        <dc:description>Gabarit pour le Projet:Blasons de WIkipédia</dc:description>
        <dc:subject>
          <rdf:Bag>
            <rdf:li>blason suisse modèle gabarit projet blasons</rdf:li>
          </rdf:Bag>
        </dc:subject>
        <dc:language>fr</dc:language>
        <dc:title>Gabrit d'un blason suisse</dc:title>
      </cc:Work>
      <cc:License
         rdf:about="http://creativecommons.org/licenses/GPL/2.0/">
        <cc:permits
           rdf:resource="http://web.resource.org/cc/Reproduction" />
        <cc:permits
           rdf:resource="http://web.resource.org/cc/Distribution" />
        <cc:requires
           rdf:resource="http://web.resource.org/cc/Notice" />
        <cc:permits
           rdf:resource="http://web.resource.org/cc/DerivativeWorks" />
        <cc:requires
           rdf:resource="http://web.resource.org/cc/ShareAlike" />
        <cc:requires
           rdf:resource="http://web.resource.org/cc/SourceCode" />
      </cc:License>
    </rdf:RDF>
  </metadata>
  <defs
     id="defs29"><inkscape:perspective
   sodipodi:type="inkscape:persp3d"
   inkscape:vp_x="0 : 381.5 : 1"
   inkscape:vp_y="0 : 1000 : 0"
   inkscape:vp_z="603 : 381.5 : 1"
   inkscape:persp3d-origin="301.5 : 254.33333 : 1"
   id="perspective28" />
<linearGradient
   id="linearGradient2893">
  <stop
     style="stop-color:#ffffff;stop-opacity:0.3137255;"
     offset="0"
     id="stop2895" />
  <stop
     id="stop2897"
     offset="0.19"
     style="stop-color:#ffffff;stop-opacity:0.25098041;" />
  <stop
     style="stop-color:#6b6b6b;stop-opacity:0.1254902;"
     offset="0.60000002"
     id="stop2901" />
  <stop
     style="stop-color:#000000;stop-opacity:0.1254902;"
     offset="1"
     id="stop2899" />
</linearGradient>
<linearGradient
   id="linearGradient2955">
  <stop
     style="stop-color:white;stop-opacity:0;"
     offset="0"
     id="stop2965" />
  <stop
     style="stop-color:black;stop-opacity:0.64583331;"
     offset="1"
     id="stop2959" />
</linearGradient>
<radialGradient
   inkscape:collect="always"
   xlink:href="#linearGradient2893"
   id="radialGradient3236"
   gradientUnits="userSpaceOnUse"
   gradientTransform="matrix(1.215027,1.531577e-24,1.464684e-23,1.266667,-839.1924,-490.4894)"
   cx="858.04236"
   cy="579.93323"
   fx="858.04236"
   fy="579.93323"
   r="300" />
<inkscape:perspective
   id="perspective2531"
   inkscape:persp3d-origin="306 : 264 : 1"
   inkscape:vp_z="612 : 396 : 1"
   inkscape:vp_y="0 : 1000 : 0"
   inkscape:vp_x="0 : 396 : 1"
   sodipodi:type="inkscape:persp3d" />

	
	
	

	

		
		
		
	
		
		
	
		
		
	
			
			
			
			
			
			
			
		</defs>
  <sodipodi:namedview
     inkscape:window-height="691"
     inkscape:window-width="939"
     inkscape:pageshadow="2"
     inkscape:pageopacity="0.0"
     guidetolerance="10.0"
     gridtolerance="10.0"
     objecttolerance="10.0"
     borderopacity="1.0"
     bordercolor="#666666"
     pagecolor="#ffffff"
     id="base"
     inkscape:zoom="0.46338463"
     inkscape:cx="331.46187"
     inkscape:cy="346.30345"
     inkscape:window-x="1413"
     inkscape:window-y="231"
     inkscape:current-layer="layer2"
     showgrid="false"
     showguides="true"
     inkscape:guide-bbox="true">
    <sodipodi:guide
       orientation="horizontal"
       position="761.5"
       id="guide1885" />
    <sodipodi:guide
       orientation="vertical"
       position="1.5"
       id="guide1887" />
    <sodipodi:guide
       orientation="horizontal"
       position="1.5"
       id="guide1889" />
    <sodipodi:guide
       orientation="vertical"
       position="601.5"
       id="guide1891" />
    <sodipodi:guide
       orientation="vertical"
       position="301.50081"
       id="guide1893" />
  </sodipodi:namedview>
  <desc
     id="desc22">Coat of Arms of Canton of Freiburg (Fribourg)</desc>
  <g
     inkscape:groupmode="layer"
     id="layer1"
     inkscape:label="Fond écu"
     style="opacity:1"
     sodipodi:insensitive="true">
    <path
       d="M 1.5,1.5 L 1.5,460.368 C 1.5,626.679 135.814,761.5 301.5,761.5 C 467.186,761.5 601.5,626.679 601.5,460.368 L 601.5,1.5 L 1.5,1.5 z"
       id="path2538"
       style="opacity:1;fill:#2b5df2" />
  </g>
  <g
     inkscape:groupmode="layer"
     id="layer2"
     inkscape:label="Meubles"
     style="opacity:1"
     sodipodi:insensitive="true">
    <path
       style="fill:#e20909;stroke:#000000;stroke-width:3;stroke-linecap:round;stroke-linejoin:round"
       d="M 275.929,244.26 C 275.929,244.26 207.74,230.054 207.74,176.071 C 207.74,132.316 244.676,137.999 258.314,85.72 C 258.314,85.72 274.227,97.774 275.818,120.876 C 281.057,116.37 286.628,112.041 292.408,107.881 C 323.472,85.53 343.171,88.182 349.232,59.77 C 349.232,59.77 374.256,85.504 351.906,107.855 C 381.157,95.292 405.301,77.676 405.301,45.753 C 405.301,45.753 426.515,62.421 426.515,89.319 C 426.515,96.82 424.394,103.702 420.955,109.835 C 434.711,99.292 445.078,107.881 445.078,107.881 C 433.713,115.458 425.378,145.385 415.529,160.917 C 411.73,166.907 406.242,172.897 399.628,178.322 C 395.462,199.536 367.417,211.302 351.506,220.773 C 335.595,230.244 327.071,240.473 327.071,240.473 L 275.929,244.26 z"
       id="path2494" />
    <path
       id="path2498"
       d="M 420.955,109.834 C 412.066,125.689 394.378,136.53 381.812,140.082"
       style="fill:none;stroke:#000000;stroke-width:3;stroke-linecap:round;stroke-linejoin:round" />
    <path
       id="path2500"
       d="M 327.071,223.803 C 327.071,223.803 339.004,203.346 361.734,197.664 C 375.698,194.173 389.09,186.965 399.628,178.322"
       style="fill:none;stroke:#000000;stroke-width:3;stroke-linecap:round;stroke-linejoin:round" />
    <path
       id="path2502"
       d="M 351.906,107.854 C 348.18,109.454 344.373,110.972 340.52,112.427 C 305.617,125.612 257.934,157.886 257.934,198.043 C 257.934,221.53 272.718,243.469 272.718,243.469"
       style="fill:none;stroke:#000000;stroke-width:3;stroke-linecap:round;stroke-linejoin:round" />
    <path
       id="path2504"
       d="M 252.405,236.026 C 252.405,236.026 236.342,215.09 236.342,190.466 C 236.342,163.641 252.904,140.58 275.819,120.875"
       style="fill:none;stroke:#000000;stroke-width:3;stroke-linecap:round;stroke-linejoin:round" />
    <path
       id="path2506"
       d="M 237.856,141.407 C 237.856,141.407 206.034,172.661 226.752,219.041"
       style="fill:none;stroke:#000000;stroke-width:3;stroke-linecap:round;stroke-linejoin:round" />
    <path
       id="path2508"
       d="M 280.949,223.803 C 280.949,223.803 279.623,216.605 279.623,212.722 C 279.623,196.716 286.158,171.37 301.5,158.68"
       style="fill:none;stroke:#000000;stroke-width:3;stroke-linecap:round;stroke-linejoin:round" />
    <path
       id="path2510"
       d="M 356.62,147.658 C 346.391,151.068 303.489,180.901 299.795,223.803"
       style="fill:none;stroke:#000000;stroke-width:3;stroke-linecap:round;stroke-linejoin:round" />
    <path
       style="fill:#ffffff;stroke:#000000;stroke-width:3;stroke-linecap:round;stroke-linejoin:round"
       d="M 395.261,462.467 L 395.261,284.605 L 207.739,284.605 L 207.739,462.466 L 142.959,546.567 L 142.959,646.578 L 259.45,646.578 L 259.45,539.18 C 259.45,522.547 278.277,509.063 301.5,509.063 C 324.723,509.063 343.551,522.547 343.551,539.18 L 343.551,646.578 L 460.041,646.578 L 460.041,546.567 L 395.261,462.467 z"
       id="path2514" />
    <polygon
       style="fill:#ffffff;stroke:#000000;stroke-width:3;stroke-linecap:round;stroke-linejoin:round"
       points="374.235,223.803 374.235,263.58 327.071,263.58 327.071,223.803 275.929,223.803 275.929,263.58 228.764,263.58 228.764,223.803 188.987,223.803 188.987,294.266 414.013,294.266 414.013,223.803 374.235,223.803 "
       id="polygon2516" />
    <path
       style="fill:#e20909;stroke:#000000;stroke-width:3;stroke-linecap:round;stroke-linejoin:round"
       d="M 301.5,459.269 C 304.613,457.303 307.904,455.438 311.349,453.67 C 337.489,440.268 367.038,403.369 363.249,379.124 C 363.249,379.124 386.452,404.222 386.452,435.475 C 386.452,466.73 354.771,498.409 346.39,506.79 C 346.39,506.79 372.53,481.22 395.401,495.425 C 395.401,495.425 375.939,501.96 369.688,518.155 C 363.438,534.349 349.231,552.534 331.616,552.534 C 324.659,552.534 318.026,551.44 312.595,548.489 C 309.653,549.437 305.944,550.166 301.498,550.166 C 295.853,550.166 289.952,548.422 284.748,544.841 C 284.748,544.841 284.052,545.17 282.05,545.82 C 278.872,546.773 275.357,547.42 271.665,547.42 C 257.601,547.42 239.275,537.476 239.275,512.757 C 239.275,474.684 283.03,448.357 279.905,425.246 C 279.907,425.246 300.08,435.402 301.5,459.269 z"
       id="path2520" />
    <path
       style="fill:none;stroke:#000000;stroke-width:3;stroke-linecap:round;stroke-linejoin:round"
       d="M 312.597,548.489 C 304.612,544.149 299.227,535.794 299.227,520.996 C 299.227,492.584 328.209,473.833 338.815,466.066"
       id="path2522" />
    <path
       style="fill:none;stroke:#000000;stroke-width:3;stroke-linecap:round;stroke-linejoin:round"
       d="M 284.75,544.841 C 275.808,538.689 268.921,527.112 268.921,509.632 C 268.921,488.5 281.583,471.842 301.501,459.269"
       id="path2524" />
  </g>
  <g
     inkscape:groupmode="layer"
     id="layer3"
     inkscape:label="Reflet final"
     style="display:inline"
     sodipodi:insensitive="true">
    <path
       style="fill:url(#radialGradient3236);fill-opacity:1"
       d="M 1.5,1.5 L 1.5,460.3679 C 1.5,626.67854 135.81454,761.5 301.49993,761.5 C 467.1854,761.5 601.5,626.67854 601.5,460.3679 L 601.5,1.5 L 1.5,1.5 z "
       id="path2346" />
  </g>
  <g
     inkscape:groupmode="layer"
     id="layer4"
     inkscape:label="Contour final"
     style="display:inline"
     sodipodi:insensitive="true">
    <path
       style="fill:none;fill-opacity:1;stroke:#000000;stroke-width:3;stroke-miterlimit:4;stroke-dasharray:none;stroke-opacity:1"
       d="M 1.5,1.5 L 1.5,460.36794 C 1.5,626.67854 135.81454,761.5 301.49993,761.5 C 467.1854,761.5 601.5,626.67854 601.5,460.36794 L 601.5,1.5 L 1.5,1.5 z "
       id="path3239" />
  </g>
</svg>
